willow-servers/src/main/resources/webapp/images/icons.svg

<svg xmlns="http://www.w3.org/2000/svg" style="height: 0"><symbol viewBox="0 0 550.7 550.7" id="shape-alarm" style="height: 0"><title>alarm</title> <path d="M229.8 200.6c0-10.4 8.6-19 19-19s19 8.6 19 19c0 10.4-8.6 19-19 19S229.8 211 229.8 200.6zM504 320.6c0 12.9-11 23.9-23.9 23.9 -0.6 0-1.2 0-1.8 0 -25.1 40.4-60.6 74.1-103.4 96.7v67.3c0 23.3-19 42.2-42.2 42.2h-169.6c-23.3 0-42.2-19-42.2-42.2V356.7c-45.3-36.7-74.1-92.4-74.1-155.4 0-111.4 90.6-201.3 201.3-201.3l0 0C359.5 0 449.4 90.6 449.4 201.3c0 63-28.8 118.7-74.1 155.4v61.8c34.9-20.2 64.9-49 86.3-82.6 -3.1-4.3-5.5-9.2-5.5-14.7 0-12.9 10.4-23.3 23.3-23.3C493.6 296.7 504 307.1 504 320.6zM185.1 200.6c0 34.9 28.2 63 63.6 63 34.9 0 63-28.2 63-63 0-34.9-28.2-63.6-63-63.6C213.3 137 185.1 165.8 185.1 200.6zM335.1 487.1H161.3v22h173.8V487.1zM335.1 434.4H161.3v22h173.8V434.4zM335.1 382.4H161.3v22h173.8V382.4z"/> </symbol><symbol viewBox="0 0 512 512" id="shape-bell"><title>bell</title> <path d="M310.5 117.7c-11.2-6.4-18.1-18.4-18.1-31.2 0 0 0 0 0-0.1C292.4 66.3 276.1 50 256 50c-20.1 0-36.4 16.3-36.4 36.4 0 0 0 0 0 0.1 0 12.9-6.9 24.8-18.1 31.3C120.4 164.3 167 318.8 82.3 346.1v36.1h347.4v-36.1C345 318.8 391.6 164.3 310.5 117.7zM256 71.6c8.1 0 14.8 6.6 14.8 14.8 0 8.1-6.6 14.8-14.8 14.8 -8.1 0-14.8-6.6-14.8-14.8C241.2 78.3 247.9 71.6 256 71.6zM140.3 347.3c37.4-46.2 34.4-119.3 53.3-166.5C204 155 222.3 136.6 256 136.6c33.3 0 51.9 18.1 62.3 44.1 18.9 47.2 15.9 120.3 53.3 166.5H140.3zM306.2 412.3c0 27.4-22.2 49.7-49.7 49.7 -27.4 0-49.7-22.2-49.7-49.7H306.2z"/> </symbol><symbol viewBox="0 0 512 512" id="shape-close"><title>close</title> <path d="M462 256c0 113.8-92.2 206-206 206S50 369.8 50 256 142.2 50 256 50 462 142.2 462 256zM422 256c0-91.8-74.3-166-166-166 -91.8 0-166 74.3-166 166 0 91.8 74.3 166 166 166C347.8 422 422 347.7 422 256zM325.3 362.5l-67.3-67.3 -67.3 67.3 -36.2-36.2 67.3-67.3 -67.3-67.3 36.2-36.2 67.3 67.3 67.3-67.3 36.2 36.2 -67.3 67.3 67.3 67.3L325.3 362.5z"/> </symbol><symbol viewBox="0 0 612 612" id="shape-close2"><title>close2</title> <path d="M420.5 218.8c-0.3-6.9-2.9-13.8-8.2-19.1 -5.3-5.3-12.2-7.9-19.1-8.2 -7.7-0.3-15.5 2.3-21.4 8.2L306 265.4l-65.8-65.8c-5.9-5.9-13.7-8.5-21.4-8.2 -6.9 0.3-13.8 2.9-19.1 8.2 -5.3 5.3-7.9 12.2-8.2 19.1 -0.3 7.7 2.3 15.5 8.2 21.4L265.4 306l-65.8 65.8c-5.9 5.9-8.5 13.7-8.2 21.4 0.3 6.9 2.9 13.8 8.2 19.1 5.3 5.3 12.2 7.9 19.1 8.2 7.7 0.3 15.5-2.3 21.4-8.2L306 346.6l65.8 65.8c5.9 5.9 13.7 8.5 21.4 8.2 6.9-0.3 13.8-2.9 19.1-8.2 5.3-5.3 7.9-12.2 8.2-19.1 0.3-7.7-2.3-15.5-8.2-21.4L346.6 306l65.8-65.8C418.2 234.3 420.8 226.5 420.5 218.8zM306 0C137 0 0 137 0 306s137 306 306 306 306-137 306-306S475 0 306 0zM306 554.6C168.9 554.6 57.4 443.1 57.4 306S168.9 57.4 306 57.4 554.6 168.9 554.6 306 443.1 554.6 306 554.6z"/> </symbol><symbol viewBox="0 0 512 512" id="shape-share"><title>share</title> <path id="share-share-4-icon" d="M134.021,328.384c36.645-159.582,219.143-196.722,219.143-196.722V82.534L462,191.191l-108.836,108.66	v-49.129C353.164,250.723,212.039,244.849,134.021,328.384z M354.049,348.426v40.028H91.01V218.083h57.562 c11.502-14.814,24.562-28.487,38.979-41.011H50v252.394h345.059V307.482L354.049,348.426z"/> </symbol><symbol viewBox="0 0 31.6 27.2" id="shape-terminal"><title>terminal</title> <g id="terminal-g4" transform="matrix(1 0 0 .84684 .035141 -1.8836)"><path id="terminal-path6" d="m29.3 2.3h-27c-1.3 0-2.3 1-2.3 2.2v22.6c0 1.2 1 2.3 2.3 2.3h27.1c1.2 0 2.3-1 2.3-2.3v-22.6c0-1.2-1-2.3-2.3-2.3zm-22 1.6c0.6 0 1.1 0.5 1.1 1.1s-0.5 1.1-1.1 1.1-1.1-0.5-1.1-1.1 0.5-1.1 1.1-1.1zm-3.4 0c0.6 0 1.1 0.5 1.1 1.1 0.1 0.7-0.4 1.2-1.1 1.2-0.6 0-1.1-0.5-1.1-1.1s0.5-1.2 1.1-1.2zm25.4 23.2h-27v-19.2h27.1v19.2z"/><polygon id="terminal-polygon8" points="5.4 17.3 12.6 13.9 12.6 12.6 5.4 9.2 5.4 10.8 11 13.2 11 13.3 5.4 15.7"/><rect id="terminal-rect10" y="12.5" width="3.9" x="16.1" height="1.5"/></g> </symbol><symbol viewBox="0 0 32 29" id="shape-to-radiator"><title>to-radiator</title> <style>.s0{stroke-width:19;stroke:#fff;}</style> <g transform="matrix(1 0 0 .90074 .019857 .057868)"> <path d="m29 0h-26c-1.7 0-3 1.1-3 2.4v21.1c0 1.3 1.3 2.4 3 2.4h26c1.7 0 3-1.1 3-2.4v-21.1c0-1.3-1.3-2.4-3-2.4zm-17.8 1.7c0.6 0 1.2 0.4 1.2 0.9s-0.5 0.9-1.2 0.9c-0.6 0-1.2-0.4-1.2-0.9s0.5-0.9 1.2-0.9zm-3.3 0c0.6 0 1.2 0.4 1.2 0.9s-0.5 0.9-1.2 0.9c-0.6 0-1.2-0.4-1.2-0.9s0.5-0.9 1.2-0.9zm-3.3 0c0.6 0 1.2 0.4 1.2 0.9s-0.5 0.9-1.2 0.9c-0.6 0-1.2-0.4-1.2-0.9s0.5-0.9 1.2-0.9zm24 19.7c0 0.9-0.9 1.6-2 1.6h-21c-1.1 0-2-0.7-2-1.6l-0.1-14.5c0-0.9 0.3-0.9 1.1-0.9l10.4-0.1c1.1 0 0.9-0.4 0.9-1.1s-0.1-1.1 0.8-1.2h10.8c0.7 0 1 0 1 0.9zm-4.9-9.2c-0.2-0.4-0.6-0.6-1.1-0.6-0.2 0-0.3 0-0.5 0.1l-2.8-3.3c0.1-0.2 0.1-0.3 0.1-0.5 0-0.7-0.6-1.2-1.3-1.2s-1.3 0.5-1.3 1.2c0 0.3 0.2 0.6 0.4 0.9l-3.5 8.2h-0.2l-3.6-5.3c0.1-0.2 0.2-0.4 0.2-0.7 0-0.7-0.6-1.2-1.3-1.2s-1.3 0.5-1.3 1.2c0 0.2 0.1 0.4 0.2 0.6l-3.9 4.6 0.8 0.6 3.9-4.6h0.2 0.2l3.7 5.3c-0.1 0.2-0.2 0.4-0.2 0.7 0 0.7 0.6 1.2 1.3 1.2s1.3-0.5 1.3-1.2c0-0.3-0.1-0.6-0.3-0.8l3.5-8.3c0.1 0 0.2 0 0.3-0.1l2.9 3.4c-0.1 0.1-0.1 0.3-0.1 0.4 0 0.7 0.6 1.2 1.3 1.2 0.5 0 1-0.3 1.2-0.8l4.2-1.2-0.3-0.9-4 1.1z"/> </g> <g stroke-width="19" transform="matrix(0 -.041518 -.055995 0 27.532 28.691)" stroke="#fff" class="s0"> <path stroke-width="18.3" d="m408.8 179-138.8-185.2c-2.9-3.9-7.3-5.4-11.9-5.4s-8.6 1.8-11.9 5.4c-3.4 3.6-5.2 7.9-5 12.9l3 112-18.7 1.7c-125.4 11.5-183.2 36.6-211.8 113.4-9.4 25.6-14.1 57.3-14.1 95.2 0 31.6 11.2 52.8 33.7 107.1 0.5 1.3 1.5 3.6 2.8 6.9 1.3 3.2 2.5 6.1 3.6 8.6s2.2 4.6 3.5 6.3c2.1 3.2 4.6 4.9 7.4 4.9 2.7 0 4.7-1 6.2-2.9s2.3-4.3 2.3-7.1c0-1.7-0.2-4.2-0.7-7.6-0.4-3.3-0.7-5.6-0.7-6.7-0.9-13-1.3-24.7-1.3-35.2 0-19.2 1.5-14.7 4.6-29.9s7.4-28.4 12.9-39.6 12.6-20.8 21.2-28.9c8.7-8.1 18-14.7 28-19.9 10-5.1 21.8-9.2 35.3-12.1 13.5-3 17.2-3.1 25.8-4.4 29.9-4.8 17.6-2.3 41.6-2.9l18.3-0.5v110.2c0 5 1.7 9.2 5 12.9 3.4 3.6 7.3 5.4 11.9 5.4s8.6-1.8 11.9-5.4l135.9-183.5c3.4-3.6 5-7.9 5-12.9s-1.7-9.2-5-12.9z" stroke="#fff"/> </g> </symbol></svg>

<svg xmlns="http://www.w3.org/2000/svg" style="height: 0">
   <symbol viewBox="0 0 550.7 550.7" id="shape-alarm"><title>alarm</title> <path d="M229.8 200.6c0-10.4 8.6-19 19-19s19 8.6 19 19c0 10.4-8.6 19-19 19S229.8 211 229.8 200.6zM504 320.6c0 12.9-11 23.9-23.9 23.9 -0.6 0-1.2 0-1.8 0 -25.1 40.4-60.6 74.1-103.4 96.7v67.3c0 23.3-19 42.2-42.2 42.2h-169.6c-23.3 0-42.2-19-42.2-42.2V356.7c-45.3-36.7-74.1-92.4-74.1-155.4 0-111.4 90.6-201.3 201.3-201.3l0 0C359.5 0 449.4 90.6 449.4 201.3c0 63-28.8 118.7-74.1 155.4v61.8c34.9-20.2 64.9-49 86.3-82.6 -3.1-4.3-5.5-9.2-5.5-14.7 0-12.9 10.4-23.3 23.3-23.3C493.6 296.7 504 307.1 504 320.6zM185.1 200.6c0 34.9 28.2 63 63.6 63 34.9 0 63-28.2 63-63 0-34.9-28.2-63.6-63-63.6C213.3 137 185.1 165.8 185.1 200.6zM335.1 487.1H161.3v22h173.8V487.1zM335.1 434.4H161.3v22h173.8V434.4zM335.1 382.4H161.3v22h173.8V382.4z"/> </symbol><symbol viewBox="0 0 512 512" id="shape-bell"><title>bell</title> <path d="M310.5 117.7c-11.2-6.4-18.1-18.4-18.1-31.2 0 0 0 0 0-0.1C292.4 66.3 276.1 50 256 50c-20.1 0-36.4 16.3-36.4 36.4 0 0 0 0 0 0.1 0 12.9-6.9 24.8-18.1 31.3C120.4 164.3 167 318.8 82.3 346.1v36.1h347.4v-36.1C345 318.8 391.6 164.3 310.5 117.7zM256 71.6c8.1 0 14.8 6.6 14.8 14.8 0 8.1-6.6 14.8-14.8 14.8 -8.1 0-14.8-6.6-14.8-14.8C241.2 78.3 247.9 71.6 256 71.6zM140.3 347.3c37.4-46.2 34.4-119.3 53.3-166.5C204 155 222.3 136.6 256 136.6c33.3 0 51.9 18.1 62.3 44.1 18.9 47.2 15.9 120.3 53.3 166.5H140.3zM306.2 412.3c0 27.4-22.2 49.7-49.7 49.7 -27.4 0-49.7-22.2-49.7-49.7H306.2z"/> </symbol><symbol viewBox="0 0 512 512" id="shape-close"><title>close</title> <path d="M462 256c0 113.8-92.2 206-206 206S50 369.8 50 256 142.2 50 256 50 462 142.2 462 256zM422 256c0-91.8-74.3-166-166-166 -91.8 0-166 74.3-166 166 0 91.8 74.3 166 166 166C347.8 422 422 347.7 422 256zM325.3 362.5l-67.3-67.3 -67.3 67.3 -36.2-36.2 67.3-67.3 -67.3-67.3 36.2-36.2 67.3 67.3 67.3-67.3 36.2 36.2 -67.3 67.3 67.3 67.3L325.3 362.5z"/> </symbol><symbol viewBox="0 0 612 612" id="shape-close2"><title>close2</title> <path d="M420.5 218.8c-0.3-6.9-2.9-13.8-8.2-19.1 -5.3-5.3-12.2-7.9-19.1-8.2 -7.7-0.3-15.5 2.3-21.4 8.2L306 265.4l-65.8-65.8c-5.9-5.9-13.7-8.5-21.4-8.2 -6.9 0.3-13.8 2.9-19.1 8.2 -5.3 5.3-7.9 12.2-8.2 19.1 -0.3 7.7 2.3 15.5 8.2 21.4L265.4 306l-65.8 65.8c-5.9 5.9-8.5 13.7-8.2 21.4 0.3 6.9 2.9 13.8 8.2 19.1 5.3 5.3 12.2 7.9 19.1 8.2 7.7 0.3 15.5-2.3 21.4-8.2L306 346.6l65.8 65.8c5.9 5.9 13.7 8.5 21.4 8.2 6.9-0.3 13.8-2.9 19.1-8.2 5.3-5.3 7.9-12.2 8.2-19.1 0.3-7.7-2.3-15.5-8.2-21.4L346.6 306l65.8-65.8C418.2 234.3 420.8 226.5 420.5 218.8zM306 0C137 0 0 137 0 306s137 306 306 306 306-137 306-306S475 0 306 0zM306 554.6C168.9 554.6 57.4 443.1 57.4 306S168.9 57.4 306 57.4 554.6 168.9 554.6 306 443.1 554.6 306 554.6z"/> </symbol><symbol viewBox="0 0 512 512" id="shape-share"><title>share</title> <path id="share-share-4-icon" d="M134.021,328.384c36.645-159.582,219.143-196.722,219.143-196.722V82.534L462,191.191l-108.836,108.66  v-49.129C353.164,250.723,212.039,244.849,134.021,328.384z M354.049,348.426v40.028H91.01V218.083h57.562 c11.502-14.814,24.562-28.487,38.979-41.011H50v252.394h345.059V307.482L354.049,348.426z"/> </symbol><symbol viewBox="0 0 31.6 27.2" id="shape-terminal"><title>terminal</title> <g transform="translate(0.03514118,-2.2205212)"> <path d="M29.3 2.3H2.3C1 2.3 0 3.3 0 4.5v22.6c0 1.2 1 2.3 2.3 2.3h27.1c1.2 0 2.3-1 2.3-2.3V4.5c0-1.2-1-2.3-2.3-2.3zM7.3 3.9c0.6 0 1.1 0.5 1.1 1.1 0 0.6-0.5 1.1-1.1 1.1-0.6 0-1.1-0.5-1.1-1.1 0-0.6 0.5-1.1 1.1-1.1zm-3.4 0c0.6 0 1.1 0.5 1.1 1.1C5.1 5.7 4.6 6.2 3.9 6.2 3.3 6.2 2.8 5.7 2.8 5.1 2.8 4.5 3.3 3.9 3.9 3.9zM29.3 27.1H2.3V7.9h27.1c0 0 0 19.2 0 19.2z"/> <polygon points="5.4 15.7 5.4 17.3 12.6 13.9 12.6 12.6 5.4 9.2 5.4 10.8 11 13.2 11 13.3"/> <rect width="3.9" height="1.5" x="16.1" y="12.5"/> </g> </symbol><symbol viewBox="0 0 32 29" id="shape-to-radiator"><title>to-radiator</title> <style>.s0{stroke-width:19;stroke:#fff;}</style> <g transform="matrix(1 0 0 .90074 .019857 .057868)"> <path d="m29 0h-26c-1.7 0-3 1.1-3 2.4v21.1c0 1.3 1.3 2.4 3 2.4h26c1.7 0 3-1.1 3-2.4v-21.1c0-1.3-1.3-2.4-3-2.4zm-17.8 1.7c0.6 0 1.2 0.4 1.2 0.9s-0.5 0.9-1.2 0.9c-0.6 0-1.2-0.4-1.2-0.9s0.5-0.9 1.2-0.9zm-3.3 0c0.6 0 1.2 0.4 1.2 0.9s-0.5 0.9-1.2 0.9c-0.6 0-1.2-0.4-1.2-0.9s0.5-0.9 1.2-0.9zm-3.3 0c0.6 0 1.2 0.4 1.2 0.9s-0.5 0.9-1.2 0.9c-0.6 0-1.2-0.4-1.2-0.9s0.5-0.9 1.2-0.9zm24 19.7c0 0.9-0.9 1.6-2 1.6h-21c-1.1 0-2-0.7-2-1.6l-0.1-14.5c0-0.9 0.3-0.9 1.1-0.9l10.4-0.1c1.1 0 0.9-0.4 0.9-1.1s-0.1-1.1 0.8-1.2h10.8c0.7 0 1 0 1 0.9zm-4.9-9.2c-0.2-0.4-0.6-0.6-1.1-0.6-0.2 0-0.3 0-0.5 0.1l-2.8-3.3c0.1-0.2 0.1-0.3 0.1-0.5 0-0.7-0.6-1.2-1.3-1.2s-1.3 0.5-1.3 1.2c0 0.3 0.2 0.6 0.4 0.9l-3.5 8.2h-0.2l-3.6-5.3c0.1-0.2 0.2-0.4 0.2-0.7 0-0.7-0.6-1.2-1.3-1.2s-1.3 0.5-1.3 1.2c0 0.2 0.1 0.4 0.2 0.6l-3.9 4.6 0.8 0.6 3.9-4.6h0.2 0.2l3.7 5.3c-0.1 0.2-0.2 0.4-0.2 0.7 0 0.7 0.6 1.2 1.3 1.2s1.3-0.5 1.3-1.2c0-0.3-0.1-0.6-0.3-0.8l3.5-8.3c0.1 0 0.2 0 0.3-0.1l2.9 3.4c-0.1 0.1-0.1 0.3-0.1 0.4 0 0.7 0.6 1.2 1.3 1.2 0.5 0 1-0.3 1.2-0.8l4.2-1.2-0.3-0.9-4 1.1z"/> </g> <g stroke-width="19" transform="matrix(0 -.041518 -.055995 0 27.532 28.691)" stroke="#fff" class="s0"> <path stroke-width="18.3" d="m408.8 179-138.8-185.2c-2.9-3.9-7.3-5.4-11.9-5.4s-8.6 1.8-11.9 5.4c-3.4 3.6-5.2 7.9-5 12.9l3 112-18.7 1.7c-125.4 11.5-183.2 36.6-211.8 113.4-9.4 25.6-14.1 57.3-14.1 95.2 0 31.6 11.2 52.8 33.7 107.1 0.5 1.3 1.5 3.6 2.8 6.9 1.3 3.2 2.5 6.1 3.6 8.6s2.2 4.6 3.5 6.3c2.1 3.2 4.6 4.9 7.4 4.9 2.7 0 4.7-1 6.2-2.9s2.3-4.3 2.3-7.1c0-1.7-0.2-4.2-0.7-7.6-0.4-3.3-0.7-5.6-0.7-6.7-0.9-13-1.3-24.7-1.3-35.2 0-19.2 1.5-14.7 4.6-29.9s7.4-28.4 12.9-39.6 12.6-20.8 21.2-28.9c8.7-8.1 18-14.7 28-19.9 10-5.1 21.8-9.2 35.3-12.1 13.5-3 17.2-3.1 25.8-4.4 29.9-4.8 17.6-2.3 41.6-2.9l18.3-0.5v110.2c0 5 1.7 9.2 5 12.9 3.4 3.6 7.3 5.4 11.9 5.4s8.6-1.8 11.9-5.4l135.9-183.5c3.4-3.6 5-7.9 5-12.9s-1.7-9.2-5-12.9z" stroke="#fff"/> </g> </symbol>
 </svg>
